svgs/sporza.svg

<svg xmlns="http://www.w3.org/2000/svg" viewBox="0 0 192 192"><path d="M55.157 174.678c-12.579-2.527-27.923-10.764-36.475-19.58L16 152.333l8.479-14.271c8.055-13.555 10.496-16.123 12.188-12.821 1.143 2.23 13.342 9.302 20.563 11.92 8.137 2.95 23.091 3.073 28.722.236 8.705-4.386 8.287-14.449-.8-19.237-2.745-1.447-12.135-4.315-20.867-6.374C30.24 103.757 18.277 90.03 19.86 60.809c1.143-21.105 12.152-35.791 32.006-42.701 10.643-3.704 33.691-2.34 44.449 2.632 8.968 4.144 17.318 9.73 20.007 13.385 1.669 2.267 1.159 3.573-6.26 16.041l-8.077 13.573-9.536-5.714c-8.678-5.2-10.507-5.759-20.32-6.212-8.698-.402-11.562-.002-14.811 2.066-5.1 3.247-6.524 6.079-5.509 10.955 1.069 5.136 7.795 8.661 23.345 12.234 16.075 3.693 25.226 7.519 33.453 13.987 11.202 8.807 15.708 18.972 15.852 35.76.215 25.084-12.128 41.169-36.342 47.355-8.716 2.227-23.283 2.451-32.96.508Zm95.778.146c-5.049-1.115-9.495-4.671-13.08-10.461-3.464-5.593-3.464-21.672 0-27.265 5.466-8.828 13.787-12.767 22.17-10.496 9.762 2.644 15.975 11.871 15.975 23.723 0 8.142-1.1 11.818-5.145 17.2-4.812 6.404-12.018 9.043-19.92 7.299Z"/></svg>

<svg
    xmlns="http://www.w3.org/2000/svg"
    viewBox="0 0 192 192"
    id="vector">
    <g id="group">
        <path
            id="path_6"
            d="M 55.157 174.678 C 42.578 172.151 27.234 163.914 18.682 155.098 L 16 152.333 L 24.479 138.062 C 32.534 124.507 34.975 121.939 36.667 125.241 C 37.81 127.471 50.009 134.543 57.23 137.161 C 65.367 140.111 80.321 140.234 85.952 137.397 C 94.657 133.011 94.239 122.948 85.152 118.16 C 82.407 116.713 73.017 113.845 64.285 111.786 C 30.24 103.757 18.277 90.03 19.86 60.809 C 21.003 39.704 32.012 25.018 51.866 18.108 C 62.509 14.404 85.557 15.768 96.315 20.74 C 105.283 24.884 113.633 30.47 116.322 34.125 C 117.991 36.392 117.481 37.698 110.062 50.166 L 101.985 63.739 L 92.449 58.025 C 83.771 52.825 81.942 52.266 72.129 51.813 C 63.431 51.411 60.567 51.811 57.318 53.879 C 52.218 57.126 50.794 59.958 51.809 64.834 C 52.878 69.97 59.604 73.495 75.154 77.068 C 91.229 80.761 100.38 84.587 108.607 91.055 C 119.809 99.862 124.315 110.027 124.459 126.815 C 124.674 151.899 112.331 167.984 88.117 174.17 C 79.401 176.397 64.834 176.621 55.157 174.678 Z M 150.935 174.824 C 145.886 173.709 141.44 170.153 137.855 164.363 C 134.391 158.77 134.391 142.691 137.855 137.098 C 143.321 128.27 151.642 124.331 160.025 126.602 C 169.787 129.246 176 138.473 176 150.325 C 176 158.467 174.9 162.143 170.855 167.525 C 166.043 173.929 158.837 176.568 150.935 174.824 Z"
            fill="#000000"
            stroke-width="12"/>
    </g>
</svg>
